X:1
T:Title
%%score { ( 1 3 ) | ( 2 4 ) }
L:1/8
M:4/4
K:Db
V:1 treble nm="Grand Piano"
V:3 treble 
V:2 bass 
V:4 bass 
V:1
 z4 z2[Q:1/4=100] [FA]2 | [FA]3 F GFED | B6 z2 | [DFA]3 [A,DF] [=G,DF]2 [G,DE]2 |[M:3/4] [CE]6 | %5
[M:1/4] [GA]2 |[M:4/4] [Fd]3 [Fd] [FA]2 [Fd]2 | d3 B B2 B2 | A3 F [CG]2 [CE]2 | D6 z2 | A3 F AdAF | %11
 G8 | G3 F GecA | d8 | [FA]3 [FA] [_F=G]A[=Fd]F | [DE]2 [=DF]2 z4 | %16
 [Gc]3 B [FA]=G_G[CE][Q:1/4=97][Q:1/4=94][Q:1/4=91][Q:1/4=88][Q:1/4=84][Q:1/4=81][Q:1/4=78] | %17
[M:3/4][K:bass] D-[A,D-] [B,D-][=A,D-] [_A,D]2 |] %18
V:2
 z4 z2 [D,D]2 | [D,D]3 [D,A,D] [D,B,D][D,A,D][D,G,D][D,F,] | D4 D2 G,2 | D,3 D, B,,2 B,,2 | %4
[M:3/4] [A,,A,]6 |[M:1/4] [A,,A,]2 |[M:4/4] [D,A,]3 [D,A,] [D,D]2 [D,_C]2 | %7
 [G,B,G]3 [G,DG] [G,DG]2 [=G,D_F]2 | [A,DF]3[K:bass] [A,D] [A,,A,]2 [A,,G,]2 | [D,F,]6 z2 | %10
 [DF]4 [DF]4 | z4[K:bass] C4 | [CE]4 [CE]2 [EG]2 | z4 D4[K:bass] | z4 D2 A,2 | G,G,F,F, E,4 | %16
 z2 z G z _FEG, |[M:3/4] z F, G,G, F,2 |] %18
V:3
 x8 | x8 | z2 B,2 G2 [DGB]2 | x8 |[M:3/4] x6 |[M:1/4] x2 |[M:4/4] x8 | x8 | x8 | x8 | x8 | %11
 z ECD E4 | x8 | z FAG F4 | x8 | B,B,B,B, [B,EG]4 | z4 A,4 |[M:3/4][K:bass] .F,2 z2 z2 |] %18
V:4
 x8 | x8 | G,6 z2 | x8 |[M:3/4] x6 |[M:1/4] x2 |[M:4/4] x8 | x8 | x3[K:bass] x5 | x8 | x8 | %11
 [CE]CA,[K:bass]B, z E,C,A,, | x8 | [DF]DFE z[K:bass] A,F,E, | [D,D]4 D,-[D,-F]D,-[D,D] | x8 | %16
 A,4 A,,4 |[M:3/4] D,6 |] %18

